img/svg/safe.svg

<svg width="47" height="60" viewBox="0 0 47 60" fill="none" xmlns="http://www.w3.org/2000/svg">
<path d="M40.42 34.7378C40.42 44.0158 32.9033 51.5325 23.6253 51.5325C14.3472 51.5325 6.83057 44.0158 6.83057 34.7378C6.83057 25.4598 6.83057 21.7883 6.83057 15.0406C11.9657 15.0406 23.6253 8.49146 23.6253 8.49146C23.6253 8.49146 35.3096 15.0406 40.42 15.0406C40.42 17.9431 40.42 27.3452 40.42 34.7378Z" stroke="white" stroke-miterlimit="10"/>
<path d="M46.2489 36.3755C46.2489 48.8785 36.1275 59 23.6245 59C11.1215 59 1 48.8785 1 36.3755C1 23.8725 1 18.9358 1 9.83148C7.89649 9.83148 23.6245 1 23.6245 1C23.6245 1 39.3773 9.83148 46.2489 9.83148C46.2489 13.7511 46.2489 26.4277 46.2489 36.3755Z" stroke="white" stroke-miterlimit="10"/>
<path d="M32.8044 26.1545C33.7967 25.1622 33.7967 23.5497 32.8044 22.5326C31.8121 21.5403 30.1996 21.5403 29.1825 22.5326L21.12 30.595L17.7958 27.2708C16.8035 26.2785 15.191 26.2785 14.1739 27.2708C13.1816 28.2631 13.1816 29.8756 14.1739 30.8927L21.1448 37.8636L32.8044 26.1545Z" stroke="white" stroke-miterlimit="10"/>
</svg>

<svg width="47" height="60" fill="none" xmlns="http://www.w3.org/2000/svg"><path d="M40.42 34.738c0 9.278-7.517 16.794-16.795 16.794-9.278 0-16.794-7.516-16.794-16.794V15.04c5.135 0 16.794-6.55 16.794-6.55s11.685 6.55 16.795 6.55v19.697z" stroke="#fff" stroke-miterlimit="10"/><path d="M46.249 36.376C46.249 48.879 36.127 59 23.624 59 11.123 59 1 48.879 1 36.376V9.83C7.896 9.831 23.625 1 23.625 1s15.752 8.831 22.624 8.831v26.545z" stroke="#fff" stroke-miterlimit="10"/><path d="M32.804 26.154c.993-.992.993-2.604 0-3.621-.992-.993-2.604-.993-3.622 0l-8.062 8.062-3.324-3.324c-.992-.992-2.605-.992-3.622 0-.992.992-.992 2.605 0 3.622l6.97 6.97 11.66-11.709z" stroke="#fff" stroke-miterlimit="10"/></svg>
